X:158
T:Month of March, The
M:2/4
L:1/8
B:Thompson's Compleat Collection of 200 Favourite Country Dances, vol. 2 (London, 1765)
Z:Transcribed and edited by Flynn Titford-Mock, 2007
Z:abc's:AK/Fiddler's Companion
K:A
A A2 c | B B2 c | A A2 c | BE "tr"E2 | A A2 c | B B2 d | cABG | A2 [A,2A2] :|
|: ecAe | fdBf | ecAc | BG E2 | ecAe | fdBd | cABG | A2 [A,2A2] :|

